X:18
T: Sárga dinnye, görög dinnye, inastól...
O: Korond (Udvarhely), iskolás gyerekek, 1900
Q: "Tempo guisto"
M:4/4
L:1/4
K:C
g/f/e/c/ a/a/a/g/ | a<f c z | 
a/a/a/g/ g/e/f/d/ | c<c G z | 
f>e gd | c/c/A/B/ | A<c G z | 
f/g/a/g/ f/e/d/c/ | A<G G z | 

